apps/32/preferences-system-startup.svg

<svg width="32" height="32" version="1.1" viewBox="0 0 32 32" xmlns="http://www.w3.org/2000/svg" xmlns:xlink="http://www.w3.org/1999/xlink">
<defs>
<linearGradient id="linearGradient3403" x1="6.9492" x2="11.215" y1="4.5549" y2="59.052" gradientUnits="userSpaceOnUse">
<stop style="stop-color:#32373c" offset="0"/>
<stop style="stop-color:#1a1a1a" offset=".36805"/>
<stop style="stop-color:#31363b" offset="1"/>
</linearGradient>
<linearGradient id="linearGradient20558" x1="25.802" x2="25.111" y1="20.374" y2="58.913" gradientUnits="userSpaceOnUse">
<stop style="stop-color:#3d3d3d" offset="0"/>
<stop offset=".61772"/>
<stop style="stop-color:#3d3d3d" offset="1"/>
</linearGradient>
<linearGradient id="linearGradient4557" x1="43.5" x2="44.142" y1="64.012" y2=".30621" gradientTransform="translate(.36068 -.13017)" gradientUnits="userSpaceOnUse">
<stop style="stop-color:#141618" offset="0"/>
<stop style="stop-color:#686868" offset=".51821"/>
<stop style="stop-color:#31363b" offset="1"/>
</linearGradient>
<linearGradient id="k" x2="0" y1="536.8" y2="503.8" gradientTransform="translate(-384.57,-499.8)" gradientUnits="userSpaceOnUse">
<stop stop-color="#2a2c2f" offset="0"/>
<stop stop-color="#424649" offset="1"/>
</linearGradient>
<linearGradient id="l" x1="2.004" x2="2" y1="31" y2="6" gradientTransform="matrix(1.25 0 0 1.1333 -484.71 -607.24)" gradientUnits="userSpaceOnUse">
<stop stop-color="#232629" offset="0"/>
<stop stop-color="#292c30" offset="1"/>
</linearGradient>
<linearGradient id="n" x1="391.24" x2="397.07" y1="521.21" y2="527.3" gradientTransform="matrix(1.5 0 0 1.5 -574.86 -772.81)" gradientUnits="userSpaceOnUse" xlink:href="#i"/>
<linearGradient id="i">
<stop offset="0"/>
<stop stop-opacity="0" offset="1"/>
</linearGradient>
<linearGradient id="o" x1="386.57" x2="389.57" y1="520.91" y2="523.8" gradientTransform="matrix(1.5 0 0 1.5 -574.86 -772.81)" gradientUnits="userSpaceOnUse" xlink:href="#i"/>
<linearGradient id="p" x1="386.57" x2="389.57" y1="520.91" y2="523.8" gradientTransform="matrix(1.5 0 0 1.5 -574.86 -768.81)" gradientUnits="userSpaceOnUse" xlink:href="#i"/>
<linearGradient id="q" x1="386.57" x2="389.57" y1="520.91" y2="523.8" gradientTransform="matrix(1.5 0 0 1.5 -574.86 -764.81)" gradientUnits="userSpaceOnUse" xlink:href="#i"/>
<linearGradient id="r" x1="386.57" x2="389.57" y1="520.91" y2="523.8" gradientTransform="matrix(1.5 0 0 1.5 -574.86 -752.81)" gradientUnits="userSpaceOnUse" xlink:href="#i"/>
<linearGradient id="s" x1="386.57" x2="389.57" y1="520.91" y2="523.8" gradientTransform="matrix(1.5 0 0 1.5 -574.86 -760.81)" gradientUnits="userSpaceOnUse" xlink:href="#i"/>
<linearGradient id="t" x1="386.57" x2="389.57" y1="520.91" y2="523.8" gradientTransform="matrix(1.5 0 0 1.5 -574.86 -756.81)" gradientUnits="userSpaceOnUse" xlink:href="#i"/>
<linearGradient id="u" x1="391.24" x2="397.07" y1="521.21" y2="527.3" gradientTransform="matrix(1.5 0 0 1.5 -574.86 -756.81)" gradientUnits="userSpaceOnUse" xlink:href="#i"/>
<linearGradient id="v" x1="391.24" x2="397.07" y1="521.21" y2="527.3" gradientTransform="matrix(1.5 0 0 1.5 -574.86 -768.81)" gradientUnits="userSpaceOnUse" xlink:href="#i"/>
<linearGradient id="w" x1="391.24" x2="397.07" y1="521.21" y2="527.3" gradientTransform="matrix(1.5 0 0 1.5 -574.86 -764.81)" gradientUnits="userSpaceOnUse" xlink:href="#i"/>
<linearGradient id="x" x1="391.24" x2="397.07" y1="521.21" y2="527.3" gradientTransform="matrix(1.5 0 0 1.5 -574.86 -760.81)" gradientUnits="userSpaceOnUse" xlink:href="#i"/>
<linearGradient id="y" x1="391.24" x2="397.07" y1="521.21" y2="527.3" gradientTransform="matrix(1.5 0 0 1.5 -574.86 -752.81)" gradientUnits="userSpaceOnUse" xlink:href="#i"/>
<linearGradient id="z" x1="12" x2="12" y1="29" y2="7" gradientUnits="userSpaceOnUse">
<stop stop-color="#c6cdd1" offset="0"/>
<stop stop-color="#e0e5e7" offset="1"/>
</linearGradient>
</defs>
<g transform="matrix(.58675 0 0 .79952 2.412 -1.5632)">
<rect y="4" width="48" height="36" rx="5" ry="5" style="fill:url(#k)"/>
<path d="m2.004 31h43.994v-22.018a2.985 2.985 0 0 0-0.87-2.105 3.003 3.003 0 0 0-2.124-0.875h-38a2.987 2.987 0 0 0-3 2.988v22.01z" style="fill:url(#l)"/>
<path d="m12 9 2 2h12l3-1.116-3-2.884z" style="fill:url(#n);opacity:.2"/>
<path d="m5 9 3 2h2l1 0.384 2-1.384-3-3z" style="fill:url(#o);opacity:.2"/>
<path d="m2 31h44v2h-44z" style="fill:#333639"/>
<path d="m5 13 3 2h2l1 0.384 2-1.384-3-3z" style="fill:url(#p);opacity:.2"/>
<path d="m5 17 3 2h2l1 0.384 2-1.384-3-3z" style="fill:url(#q);opacity:.2"/>
<path d="m5 29 3 2h2l1 0.384 2-1.384-3-3z" style="fill:url(#r);opacity:.2"/>
<path d="m5 21 3 2h2l1 0.384 2-1.384-3-3z" style="fill:url(#s);opacity:.2"/>
<path d="m5 25 3 2h2l1 0.384 2-1.384-3-3z" style="fill:url(#t);opacity:.2"/>
<path d="m12 25 2 2h12l3-1.116-3-2.884z" style="fill:url(#u);opacity:.2"/>
<path d="m5 7v2h5v-2zm0 4v2h5v-2zm0 4v2h5v-2zm0 4v2h5v-2zm0 4v2h5v-2zm0 4v2h5v-2z" style="fill:#11d116;paint-order:stroke fill markers"/>
<path d="m12 13 2 2h9l3-1-3-3z" style="fill:url(#v);opacity:.2"/>
<path d="m12 17 2 2h6l3-1-3-3z" style="fill:url(#w);opacity:.2"/>
<path d="m12 21 2 2h9l3-1-3-3z" style="fill:url(#x);opacity:.2"/>
<path d="m12 29 2 2h6l3-1-3-3z" style="fill:url(#y);opacity:.2"/>
<path d="m12 7v2h14v-2zm0 4v2h11v-2zm0 4v2h8v-2zm0 4v2h11v-2zm0 4v2h14v-2zm0 4v2h8v-2z" style="fill:url(#z);paint-order:stroke fill markers"/>
</g>
<path transform="matrix(.5 0 0 .5 .066304 .016549)" d="m4.7043 3.9815-0.012938 56.82h53.904l1.0222-2.8664s-23.875 0.76639-32.844-4.1404c-10.516-5.7529-15.372-49.697-15.372-49.697z" style="fill:url(#linearGradient3403);mix-blend-mode:normal;stroke-linejoin:round;stroke-width:1.1624;stroke:url(#linearGradient20558)"/>
<rect transform="matrix(.46839 0 0 .46744 .90638 1.0269)" x="1.0324" y=".59551" width="62.567" height="62.867" rx="5.803" ry="6.2447" style="fill:none;stroke-linejoin:round;stroke-miterlimit:7.8;stroke-opacity:.99515;stroke-width:3.7137;stroke:url(#linearGradient4557)"/>
</svg>

<?xml version="1.0" encoding="UTF-8" standalone="no"?>
<!-- Created with Inkscape (http://www.inkscape.org/) -->

<svg
   width="32"
   height="32"
   version="1.1"
   viewBox="0 0 32 32"
   id="svg22"
   xmlns:xlink="http://www.w3.org/1999/xlink"
   xmlns="http://www.w3.org/2000/svg"
   xmlns:svg="http://www.w3.org/2000/svg">
  <defs
     id="defs12">
    <linearGradient
       xlink:href="#linearGradient3487"
       id="linearGradient3403"
       gradientUnits="userSpaceOnUse"
       x1="6.9491749"
       y1="4.5549412"
       x2="11.215498"
       y2="59.052471" />
    <linearGradient
       id="linearGradient3487">
      <stop
         style="stop-color:#32373c;stop-opacity:1"
         offset="0"
         id="stop3481" />
      <stop
         id="stop3483"
         offset="0.36804965"
         style="stop-color:#1a1a1a;stop-opacity:1" />
      <stop
         style="stop-color:#31363b;stop-opacity:1"
         offset="1"
         id="stop3485" />
    </linearGradient>
    <linearGradient
       xlink:href="#linearGradient20604"
       id="linearGradient20558"
       gradientUnits="userSpaceOnUse"
       x1="25.802212"
       y1="20.373846"
       x2="25.111048"
       y2="58.912758" />
    <linearGradient
       id="linearGradient20604">
      <stop
         id="stop20598"
         offset="0"
         style="stop-color:#3d3d3d;stop-opacity:1" />
      <stop
         style="stop-color:#000000;stop-opacity:1"
         offset="0.61772454"
         id="stop20600" />
      <stop
         id="stop20602"
         offset="1"
         style="stop-color:#3d3d3d;stop-opacity:1" />
    </linearGradient>
    <filter
       style="color-interpolation-filters:sRGB"
       id="filter20720"
       x="-0.017024755"
       y="-0.016457183"
       width="1.0340491"
       height="1.0329144">
      <feGaussianBlur
         stdDeviation="0.14745661"
         id="feGaussianBlur20722" />
    </filter>
    <linearGradient
       gradientTransform="translate(0.36067797,-0.13016949)"
       xlink:href="#linearGradient4555"
       id="linearGradient4557"
       x1="43.499737"
       y1="64.011795"
       x2="44.141731"
       y2="0.30621234"
       gradientUnits="userSpaceOnUse" />
    <linearGradient
       id="linearGradient4555">
      <stop
         style="stop-color:#141618;stop-opacity:1"
         offset="0"
         id="stop4551" />
      <stop
         id="stop4559"
         offset="0.51820582"
         style="stop-color:#686868;stop-opacity:1" />
      <stop
         style="stop-color:#31363b;stop-opacity:1"
         offset="1"
         id="stop4553" />
    </linearGradient>
    <filter
       style="color-interpolation-filters:sRGB"
       id="filter4601"
       x="-0.030244955"
       width="1.0604899"
       y="-0.030100647"
       height="1.0602013">
      <feGaussianBlur
         stdDeviation="0.014790289"
         id="feGaussianBlur4603" />
    </filter>
    <linearGradient
       id="k"
       y1="536.79999"
       y2="503.79999"
       x2="0"
       gradientUnits="userSpaceOnUse"
       gradientTransform="translate(-384.57,-499.8)">
      <stop
         stop-color="#2a2c2f"
         id="stop32" />
      <stop
         offset="1"
         stop-color="#424649"
         id="stop34" />
    </linearGradient>
    <linearGradient
       xlink:href="#h"
       id="l"
       x1="2.0039999"
       y1="31"
       x2="2"
       y2="6"
       gradientUnits="userSpaceOnUse" />
    <linearGradient
       id="h"
       gradientTransform="matrix(1.25,0,0,1.13333,-484.714,-607.238)"
       gradientUnits="userSpaceOnUse"
       x1="400.57101"
       x2="400.57101"
       y1="535.79797"
       y2="520.79797">
      <stop
         offset="0"
         stop-color="#232629"
         id="stop48" />
      <stop
         offset="1"
         stop-color="#292c30"
         id="stop50" />
    </linearGradient>
    <linearGradient
       id="n"
       gradientUnits="userSpaceOnUse"
       x1="391.23801"
       x2="397.07101"
       xlink:href="#i"
       y1="521.20898"
       y2="527.29797"
       gradientTransform="matrix(1.5,0,0,1.5,-574.856,-772.813)" />
    <linearGradient
       id="i">
      <stop
         offset="0"
         id="stop54" />
      <stop
         offset="1"
         stop-opacity="0"
         id="stop56" />
    </linearGradient>
    <linearGradient
       id="o"
       gradientUnits="userSpaceOnUse"
       x1="386.57101"
       x2="389.57101"
       xlink:href="#i"
       y1="520.90601"
       y2="523.79797"
       gradientTransform="matrix(1.5,0,0,1.5,-574.856,-772.813)" />
    <linearGradient
       xlink:href="#i"
       id="p"
       gradientUnits="userSpaceOnUse"
       gradientTransform="matrix(1.5,0,0,1.5,-574.856,-768.813)"
       x1="386.57101"
       y1="520.90601"
       x2="389.57101"
       y2="523.79797" />
    <linearGradient
       xlink:href="#i"
       id="q"
       gradientUnits="userSpaceOnUse"
       gradientTransform="matrix(1.5,0,0,1.5,-574.856,-764.813)"
       x1="386.57101"
       y1="520.90601"
       x2="389.57101"
       y2="523.79797" />
    <linearGradient
       xlink:href="#i"
       id="r"
       gradientUnits="userSpaceOnUse"
       gradientTransform="matrix(1.5,0,0,1.5,-574.856,-752.813)"
       x1="386.57101"
       y1="520.90601"
       x2="389.57101"
       y2="523.79797" />
    <linearGradient
       xlink:href="#i"
       id="s"
       gradientUnits="userSpaceOnUse"
       gradientTransform="matrix(1.5,0,0,1.5,-574.856,-760.813)"
       x1="386.57101"
       y1="520.90601"
       x2="389.57101"
       y2="523.79797" />
    <linearGradient
       xlink:href="#i"
       id="t"
       gradientUnits="userSpaceOnUse"
       gradientTransform="matrix(1.5,0,0,1.5,-574.856,-756.813)"
       x1="386.57101"
       y1="520.90601"
       x2="389.57101"
       y2="523.79797" />
    <linearGradient
       xlink:href="#i"
       id="u"
       gradientUnits="userSpaceOnUse"
       gradientTransform="matrix(1.5,0,0,1.5,-574.856,-756.813)"
       x1="391.23801"
       y1="521.20898"
       x2="397.07101"
       y2="527.29797" />
    <linearGradient
       xlink:href="#i"
       id="v"
       gradientUnits="userSpaceOnUse"
       gradientTransform="matrix(1.5,0,0,1.5,-574.856,-768.813)"
       x1="391.23801"
       y1="521.20898"
       x2="397.07101"
       y2="527.29797" />
    <linearGradient
       xlink:href="#i"
       id="w"
       gradientUnits="userSpaceOnUse"
       gradientTransform="matrix(1.5,0,0,1.5,-574.856,-764.813)"
       x1="391.23801"
       y1="521.20898"
       x2="397.07101"
       y2="527.29797" />
    <linearGradient
       xlink:href="#i"
       id="x"
       gradientUnits="userSpaceOnUse"
       gradientTransform="matrix(1.5,0,0,1.5,-574.856,-760.813)"
       x1="391.23801"
       y1="521.20898"
       x2="397.07101"
       y2="527.29797" />
    <linearGradient
       xlink:href="#i"
       id="y"
       gradientUnits="userSpaceOnUse"
       gradientTransform="matrix(1.5,0,0,1.5,-574.856,-752.813)"
       x1="391.23801"
       y1="521.20898"
       x2="397.07101"
       y2="527.29797" />
    <linearGradient
       xlink:href="#b"
       id="z"
       x1="12"
       y1="29"
       x2="12"
       y2="7"
       gradientUnits="userSpaceOnUse" />
    <linearGradient
       id="b">
      <stop
         stop-color="#c6cdd1"
         id="stop22" />
      <stop
         offset="1"
         stop-color="#e0e5e7"
         id="stop24" />
    </linearGradient>
  </defs>
  <g
     id="g1245"
     transform="matrix(0.58674877,0,0,0.799518,2.4119884,-1.563191)">
    <rect
       height="36"
       y="4"
       width="48"
       ry="5"
       rx="5"
       id="rect76"
       style="fill:url(#k)"
       x="0" />
    <path
       d="M 2.004,31 H 45.998 V 8.982 A 2.985,2.985 0 0 0 45.128,6.877 3.003,3.003 0 0 0 43.004,6.002 h -38 a 2.987,2.987 0 0 0 -3,2.988 V 31 Z"
       id="path80"
       style="fill:url(#l)" />
    <path
       d="m 12,9 2,2 H 26 L 29,9.884 26,7 Z"
       id="path84"
       style="opacity:0.2;fill:url(#n)" />
    <path
       d="m 5,9 3,2 h 2 L 11,11.384 13,10 10,7 Z"
       id="path86"
       style="opacity:0.2;fill:url(#o)" />
    <path
       d="m 2,31 h 44 v 2 H 2 Z"
       id="path88"
       style="fill:#333639" />
    <path
       d="m 5,13 3,2 h 2 L 11,15.384 13,14 10,11 Z"
       id="path90"
       style="opacity:0.2;fill:url(#p)" />
    <path
       d="m 5,17 3,2 h 2 L 11,19.384 13,18 10,15 Z"
       id="path92"
       style="opacity:0.2;fill:url(#q)" />
    <path
       d="m 5,29 3,2 h 2 L 11,31.384 13,30 10,27 Z"
       id="path94"
       style="opacity:0.2;fill:url(#r)" />
    <path
       d="m 5,21 3,2 h 2 L 11,23.384 13,22 10,19 Z"
       id="path96"
       style="opacity:0.2;fill:url(#s)" />
    <path
       d="m 5,25 3,2 h 2 L 11,27.384 13,26 10,23 Z"
       id="path98"
       style="opacity:0.2;fill:url(#t)" />
    <path
       d="m 12,25 2,2 H 26 L 29,25.884 26,23 Z"
       id="path100"
       style="opacity:0.2;fill:url(#u)" />
    <path
       d="m 5,7 v 2 h 5 V 7 Z m 0,4 v 2 h 5 v -2 z m 0,4 v 2 h 5 v -2 z m 0,4 v 2 h 5 v -2 z m 0,4 v 2 h 5 v -2 z m 0,4 v 2 h 5 v -2 z"
       id="path102"
       style="fill:#11d116;paint-order:stroke fill markers" />
    <path
       d="m 12,13 2,2 h 9 l 3,-1 -3,-3 z"
       id="path104"
       style="opacity:0.2;fill:url(#v)" />
    <path
       d="m 12,17 2,2 h 6 l 3,-1 -3,-3 z"
       id="path106"
       style="opacity:0.2;fill:url(#w)" />
    <path
       d="m 12,21 2,2 h 9 l 3,-1 -3,-3 z"
       id="path108"
       style="opacity:0.2;fill:url(#x)" />
    <path
       d="m 12,29 2,2 h 6 l 3,-1 -3,-3 z"
       id="path110"
       style="opacity:0.2;fill:url(#y)" />
    <path
       d="M 12,7 V 9 H 26 V 7 Z m 0,4 v 2 h 11 v -2 z m 0,4 v 2 h 8 v -2 z m 0,4 v 2 h 11 v -2 z m 0,4 v 2 h 14 v -2 z m 0,4 v 2 h 8 v -2 z"
       id="path112"
       style="fill:url(#z);paint-order:stroke fill markers" />
  </g>
  <path
     style="display:inline;mix-blend-mode:normal;fill:url(#linearGradient3403);fill-opacity:1;stroke:url(#linearGradient20558);stroke-width:1.16242;stroke-linecap:butt;stroke-linejoin:round;stroke-miterlimit:4;stroke-dasharray:none;stroke-opacity:1;filter:url(#filter20720)"
     d="M 4.7043071,3.9814882 4.6913695,60.80196 H 58.59546 l 1.022155,-2.866369 c 0,0 -23.87537,0.766388 -32.844441,-4.140386 C 16.257548,48.042344 11.401114,4.0978197 11.401114,4.0978197 Z"
     id="path1686"
     transform="matrix(0.5,0,0,0.5,0.06630362,0.01654936)" />
  <rect
     style="display:inline;fill:none;fill-opacity:1;stroke:url(#linearGradient4557);stroke-width:3.71366;stroke-linejoin:round;stroke-miterlimit:7.8;stroke-dasharray:none;stroke-opacity:0.995146;filter:url(#filter4601)"
     id="rect4539"
     width="62.566689"
     height="62.866646"
     x="1.0323594"
     y="0.59551275"
     ry="6.2447233"
     rx="5.8029528"
     transform="matrix(0.46839137,0,0,0.46743669,0.90638486,1.0268972)" />
</svg>
